X: 16104
T: Green Garters
R: reel
M: 4/4
K: Dmajor
a2 ab afdf|a2 fd efge|agab afdf|eAcd efge|
a2 ab afdf|a2 fd g2 fg|afge fdec|ABcd efge|
d2 fd Adfd|d2 fa gece|d2 fd Adfd|eAcd efge|
d2 fd Adfd|d2 fa g2 fg|afge fdec|ABcd efge|

